X:515
T:Royal Navy,The. (p)1703.PLFD.515
M:4/4
L:1/8
Q:1/2=75
S:Playford, Dancing Master,12th Ed.,1703.
O:England
Z:Chris Partington
K:F
A|AcdcA2GF|fgafg3c|AcdcA2GF|a2f2A2d2|
Acfc Bdfd|AcfAG3B|Acdf egca|g2f2f3:|
|:a|ac'c'a faaf|eggec3c|d>cd>e f>de>f|g2e2e3c|
dB/c/ dB ec/d/ ec|fd/e/ fA G3B|Acdf egca|g2f2f3:|
